X:3301
L:1/8
Q:1/8=160
M:6/8
K:Emin
 G/A/ | B^cB AFD | B,EE E2 F/G/ | AGB AFE | DB,^C D2 ^c/e/ | deB AGF | B^cd f2 f/e/ | dBd BFD | 
 E2 E E2 :| B/^d/ | eBG e^cA | E2 E E(3AB^c | dAF dAF | D2 D D2 E/F/ | GB,B, AB,B, | B^cd e2 f/e/ | 
 d^cd BFD | E2 E E2 :|

